X: 33082
T: Gipsy Hornpipe
T: Master Erskine
C: Niel Gow
R: reel, hornpipe
B: RSCDS 33-8
B: Astor's 24 Country Dances for the yer 1803
Z: 1997 by John Chambers <jc:trillian.mit.edu>
M: C
L: 1/8
%--------------------
K: C
|: c2 \
| "C"GcBc GcBc | ecgc "F"ac"C"gc | GcBc GcBc | "D7"e2d2 "G7"d4 | "C"GcBc GcBc |
| ecgc "F"ac"C"gc | "G"GcBd "/A"ca"/B"gf | "C"e2"F"c2 "C"c2 :: ef | "C"gagf efed | "F"cdcB "G7"AGFE |
| "C"EGcG "Am"EFGE | "Dm"F2D2 "G7"D2ef | "C"gagf efed | "F"cdcB "G7"AGFE | "C"EGcG "G7"Fagf | "C"e2"F"c2 "C"c2 :|
%%center Book33/33081-Gipsy_Hornpipe.abc

%%sep 2 1 500
%%sep 1 1 500

